src/assets/icon/Icon=gallery.svg

<svg width="16" height="16" viewBox="0 0 16 16" fill="none" xmlns="http://www.w3.org/2000/svg">
<path d="M5.07617 6.67383C5.474 6.67383 5.85553 6.51579 6.13683 6.23449C6.41814 5.95318 6.57617 5.57165 6.57617 5.17383C6.57617 4.776 6.41814 4.39447 6.13683 4.11317C5.85553 3.83186 5.474 3.67383 5.07617 3.67383C4.67835 3.67383 4.29682 3.83186 4.01551 4.11317C3.73421 4.39447 3.57617 4.776 3.57617 5.17383C3.57617 5.57165 3.73421 5.95318 4.01551 6.23449C4.29682 6.51579 4.67835 6.67383 5.07617 6.67383Z" fill="black"/>
<path d="M11.8293 0H4.17067C3.06472 0.00125529 2.00444 0.441229 1.22253 1.22337C0.440614 2.0055 0.000941056 3.0659 0 4.17185V11.8281C0.00237037 12.3508 0.103111 12.8687 0.298667 13.3535L0.295111 13.357L0.301037 13.363C0.608024 14.1393 1.14094 14.8057 1.83083 15.2758C2.52072 15.746 3.33582 15.9982 4.17067 16H11.8293C12.9352 15.9984 13.9953 15.5584 14.7771 14.7763C15.559 13.9942 15.9987 12.934 16 11.8281V4.17185C15.9991 3.0659 15.5594 2.0055 14.7775 1.22337C13.9956 0.441229 12.9353 0.00125529 11.8293 0ZM1.77778 11.8281V4.17185C1.7784 3.5373 2.03068 2.9289 2.47926 2.4801C2.92784 2.03129 3.53612 1.77872 4.17067 1.77778H11.8293C12.4639 1.77872 13.0722 2.03129 13.5207 2.4801C13.9693 2.9289 14.2216 3.5373 14.2222 4.17185V9.02637L12.6068 7.74637C11.7068 7.02883 10.5811 6.65435 9.43061 6.68973C8.2801 6.72512 7.17957 7.16806 6.32533 7.93956L1.79556 12.0083C1.79081 11.949 1.77778 11.8898 1.77778 11.8281ZM11.8293 14.2222H4.17067C3.60561 14.2197 3.06004 14.0154 2.6323 13.6462L7.51289 9.26104C8.05518 8.77103 8.75399 8.48973 9.48454 8.46737C10.2151 8.445 10.9298 8.68304 11.501 9.13896L14.2222 11.296V11.8293C14.2213 12.4637 13.9689 13.0718 13.5203 13.5203C13.0718 13.9689 12.4637 14.2213 11.8293 14.2222Z" fill="black"/>
</svg>

<svg xmlns="http://www.w3.org/2000/svg" width="16" height="16" fill="none" viewBox="0 0 16 16"><path fill="#000" d="M5.076 6.674a1.5 1.5 0 1 0 0-3 1.5 1.5 0 0 0 0 3z"/><path fill="#000" d="M11.83 0H4.17A4.175 4.175 0 0 0 0 4.172v7.656c.002.523.103 1.04.299 1.526l-.004.003.006.006A4.17 4.17 0 0 0 4.171 16h7.658A4.176 4.176 0 0 0 16 11.828V4.172A4.175 4.175 0 0 0 11.83 0zM1.777 11.828V4.172A2.396 2.396 0 0 1 4.17 1.778h7.658a2.396 2.396 0 0 1 2.393 2.394v4.854l-1.615-1.28a4.856 4.856 0 0 0-6.282.194l-4.53 4.068c-.004-.059-.017-.118-.017-.18zm10.051 2.394H4.171a2.37 2.37 0 0 1-1.539-.576l4.88-4.385a3.081 3.081 0 0 1 3.989-.122l2.721 2.157v.533a2.396 2.396 0 0 1-2.393 2.393z"/></svg>
